src/assets/fontMain.svg

<svg width="900" height="600" xmlns="http://www.w3.org/2000/svg"><path fill="#2A2A2A" d="M0 0h900v600H0z"/><path d="m0 403 30 2.3c30 2.4 90 7 150 7s120-4.6 180-5.8c60-1.2 120 1.2 180 17.5s120 46.7 180 54.2 120-7.9 150-15.5l30-7.7v146H0Z" fill="#5528fa"/><path d="m0 487 30 2.7c30 2.6 90 8 150 15.1 60 7.2 120 16.2 180 15.9 60-.4 120-10 180-17s120-11.4 180-12.5c60-1.2 120 .8 150 1.8l30 1v107H0Z" fill="#4b2f8c"/><path d="m0 511 30 4.8c30 4.9 90 14.5 150 15.4 60 .8 120-7.2 180-3.7s120 18.5 180 17.8c60-.6 120-17 180-23.1 60-6.2 120-2.2 150-.2l30 2v77H0Z" fill="#2a2a2a"/></svg>

<svg id="visual" viewBox="0 0 900 600" width="900" height="600" xmlns="http://www.w3.org/2000/svg" xmlns:xlink="http://www.w3.org/1999/xlink" version="1.1"><rect x="0" y="0" width="900" height="600" fill="#2A2A2A"></rect><path d="M0 403L30 405.3C60 407.7 120 412.3 180 412.3C240 412.3 300 407.7 360 406.5C420 405.3 480 407.7 540 424C600 440.3 660 470.7 720 478.2C780 485.7 840 470.3 870 462.7L900 455L900 601L870 601C840 601 780 601 720 601C660 601 600 601 540 601C480 601 420 601 360 601C300 601 240 601 180 601C120 601 60 601 30 601L0 601Z" fill="#5528fa"></path><path d="M0 487L30 489.7C60 492.3 120 497.7 180 504.8C240 512 300 521 360 520.7C420 520.3 480 510.7 540 503.7C600 496.7 660 492.3 720 491.2C780 490 840 492 870 493L900 494L900 601L870 601C840 601 780 601 720 601C660 601 600 601 540 601C480 601 420 601 360 601C300 601 240 601 180 601C120 601 60 601 30 601L0 601Z" fill="#4b2f8c"></path><path d="M0 511L30 515.8C60 520.7 120 530.3 180 531.2C240 532 300 524 360 527.5C420 531 480 546 540 545.3C600 544.7 660 528.3 720 522.2C780 516 840 520 870 522L900 524L900 601L870 601C840 601 780 601 720 601C660 601 600 601 540 601C480 601 420 601 360 601C300 601 240 601 180 601C120 601 60 601 30 601L0 601Z" fill="#2a2a2a"></path></svg>
